X:48
T: DER LIPP UND DER LENZ
N: E1044
O: Europa, Mitteleuropa, Deutschland, Sueddeutschland
R: Tanz - Lied, Dreher
M: 3/8
L: 1/16
K: F
F2 | A2FAcA | G2E2
G2 | B2GBdB | A2F2
F2 | A2FAcA | G2E2
E2 | G2EGBG | F2z2

